W_16_Wskaźnik_przystanku_osobowego.svg

<?xml version="1.0" encoding="UTF-8" standalone="no"?>
<!-- Created with Inkscape (http://www.inkscape.org/) -->

<svg:svg
   height="62.875"
   width="216.75"
   id="svg2"
   sodipodi:version="0.32"
   inkscape:version="0.48.5 r10040"
   version="1.0"
   sodipodi:docname="W_16_Wskaźnik_przystanku_osobowego.svg"
   inkscape:output_extension="org.inkscape.output.svg.inkscape"
   sodipodi:modified="true"
   xmlns:inkscape="http://www.inkscape.org/namespaces/inkscape"
   xmlns:sodipodi="http://sodipodi.sourceforge.net/DTD/sodipodi-0.dtd"
   xmlns:svg="http://www.w3.org/2000/svg"
   xmlns:rdf="http://www.w3.org/1999/02/22-rdf-syntax-ns#"
   xmlns:cc="http://creativecommons.org/ns#"
   xmlns:dc="http://purl.org/dc/elements/1.1/">
  <svg:defs
     id="defs4" />
  <sodipodi:namedview
     id="base"
     pagecolor="#ffffff"
     bordercolor="#666666"
     borderopacity="1.0"
     inkscape:pageopacity="0.0"
     inkscape:pageshadow="2"
     inkscape:cx="73.455929"
     inkscape:cy="49.29936"
     inkscape:zoom="2.8284271"
     inkscape:document-units="px"
     inkscape:current-layer="g2184"
     width="225px"
     height="95px"
     showgrid="false"
     inkscape:object-points="true"
     inkscape:object-bbox="true"
     inkscape:object-nodes="true"
     objecttolerance="10000"
     inkscape:grid-points="true"
     gridtolerance="10000"
     inkscape:window-width="1538"
     inkscape:window-height="877"
     inkscape:window-x="-8"
     inkscape:window-y="-8"
     inkscape:window-maximized="1"
     inkscape:showpageshadow="0"
     inkscape:pagecheckerboard="0"
     inkscape:deskcolor="#d1d1d1">
    <inkscape:grid
       id="GridFromPre046Settings"
       type="xygrid"
       originx="0"
       originy="0"
       spacingx="5"
       spacingy="5"
       color="#3f3fff"
       empcolor="#3f3fff"
       opacity="0.15"
       empopacity="0.38"
       empspacing="5" />
  </sodipodi:namedview>
  <svg:metadata
     id="metadata7">
    <rdf:RDF>
      <cc:Work
         rdf:about="">
        <dc:format>image/svg+xml</dc:format>
        <dc:type
           rdf:resource="http://purl.org/dc/dcmitype/StillImage" />
      </cc:Work>
    </rdf:RDF>
  </svg:metadata>
  <svg:g
     inkscape:groupmode="layer"
     inkscape:label="Warstwa 1"
     id="layer1"
     transform="translate(-4.125,-4.8125)">
    <svg:g
       id="g2184">
      <svg:g
         transform="translate(76.5,20.1875)"
         id="g2171">
        <svg:g
           id="g2167"
           transform="matrix(1,0,0,1.125,1,-3.125)">
          <svg:rect
             y="25"
             x="95"
             height="20"
             width="10"
             id="rect2165"
             style="opacity:1;fill:#808080;fill-opacity:1;stroke:none;stroke-width:0.707107;stroke-linecap:square;stroke-miterlimit:4;stroke-dasharray:none;stroke-dashoffset:0;stroke-opacity:1" />
          <svg:rect
             y="25"
             x="-35"
             height="20"
             width="10"
             id="rect2163"
             style="opacity:1;fill:#808080;fill-opacity:1;stroke:none;stroke-width:0.707107;stroke-linecap:square;stroke-miterlimit:4;stroke-dasharray:none;stroke-dashoffset:0;stroke-opacity:1" />
        </svg:g>
        <svg:g
           id="g3860"
           transform="matrix(3,0,0,3,-72,-15)">
          <svg:rect
             y="0"
             x="0"
             height="15"
             width="72"
             id="rect3847"
             style="fill:#ffffff;fill-opacity:1;stroke:#000000;stroke-width:0.25;stroke-linecap:square;stroke-miterlimit:4;stroke-dasharray:none;stroke-dashoffset:0;stroke-opacity:1" />
          <svg:g
             transform="translate(1,20)"
             id="g3855">
            <svg:path
               style="fill:#000000;fill-rule:evenodd;stroke:none;stroke-width:1px;stroke-linecap:butt;stroke-linejoin:miter;stroke-opacity:1"
               d="M 12,-20 3,-5 h 11 l 9,-15 z"
               id="path3849" />
            <svg:path
               id="path3851"
               d="m 34,-20 -9,15 h 11 l 9,-15 z"
               style="fill:#000000;fill-rule:evenodd;stroke:none;stroke-width:1px;stroke-linecap:butt;stroke-linejoin:miter;stroke-opacity:1" />
            <svg:path
               style="fill:#000000;fill-rule:evenodd;stroke:none;stroke-width:1px;stroke-linecap:butt;stroke-linejoin:miter;stroke-opacity:1"
               d="m 56,-20 -9,15 h 11 l 9,-15 z"
               id="path3853" />
          </svg:g>
        </svg:g>
      </svg:g>
    </svg:g>
  </svg:g>
  <script />
</svg:svg>

<?xml version="1.0" encoding="UTF-8" standalone="no"?>
<!-- Created with Inkscape (http://www.inkscape.org/) -->
<svg xmlns:dc="http://purl.org/dc/elements/1.1/" xmlns:cc="http://creativecommons.org/ns#" xmlns:rdf="http://www.w3.org/1999/02/22-rdf-syntax-ns#" xmlns:svg="http://www.w3.org/2000/svg" xmlns="http://www.w3.org/2000/svg" xmlns:sodipodi="http://sodipodi.sourceforge.net/DTD/sodipodi-0.dtd" xmlns:inkscape="http://www.inkscape.org/namespaces/inkscape" height="95" width="225" id="svg2" sodipodi:version="0.32" inkscape:version="0.48.5 r10040" version="1.0" sodipodi:docname="Pkp-w16.svg" inkscape:output_extension="org.inkscape.output.svg.inkscape" sodipodi:modified="true">
  <defs id="defs4"/>
  <sodipodi:namedview id="base" pagecolor="#ffffff" bordercolor="#666666" borderopacity="1.0" inkscape:pageopacity="0.0" inkscape:pageshadow="2" inkscape:cx="73.455929" inkscape:cy="49.29936" inkscape:zoom="2.8284271" inkscape:document-units="px" inkscape:current-layer="g2184" width="225px" height="95px" showgrid="false" inkscape:object-points="true" inkscape:object-bbox="true" inkscape:object-nodes="true" objecttolerance="10000" inkscape:grid-points="true" gridtolerance="10000" inkscape:window-width="1538" inkscape:window-height="877" inkscape:window-x="-8" inkscape:window-y="-8" inkscape:window-maximized="1">
    <inkscape:grid id="GridFromPre046Settings" type="xygrid" originx="0px" originy="0px" spacingx="5px" spacingy="5px" color="#3f3fff" empcolor="#3f3fff" opacity="0.15" empopacity="0.38" empspacing="5"/>
  </sodipodi:namedview>
  <metadata id="metadata7">
    <rdf:RDF>
      <cc:Work rdf:about="">
        <dc:format>image/svg+xml</dc:format>
        <dc:type rdf:resource="http://purl.org/dc/dcmitype/StillImage"/>
      </cc:Work>
    </rdf:RDF>
  </metadata>
  <g inkscape:groupmode="layer" inkscape:label="Warstwa 1" id="layer1">
    <g id="g2184">
      <g transform="translate(76.5,20.1875)" id="g2171">
        <g id="g2167" transform="matrix(1,0,0,1.125,1,-3.125)">
          <rect y="25" x="95" height="40" width="10" id="rect2165" style="opacity:1;fill:#808080;fill-opacity:1;stroke:none;stroke-width:1;stroke-linecap:square;stroke-miterlimit:4;stroke-dasharray:none;stroke-dashoffset:0;stroke-opacity:1"/>
          <rect y="25" x="-35" height="40" width="10" id="rect2163" style="opacity:1;fill:#808080;fill-opacity:1;stroke:none;stroke-width:1;stroke-linecap:square;stroke-miterlimit:4;stroke-dasharray:none;stroke-dashoffset:0;stroke-opacity:1"/>
        </g>
        <g id="g3860" transform="matrix(3,0,0,3,-72,-15)">
          <rect y="0" x="0" height="15" width="72" id="rect3847" style="fill:#ffffff;fill-opacity:1;stroke:#000000;stroke-width:0.25;stroke-linecap:square;stroke-miterlimit:4;stroke-dasharray:none;stroke-dashoffset:0;stroke-opacity:1"/>
          <g transform="translate(1,20)" id="g3855">
            <path style="fill:#000000;fill-rule:evenodd;stroke:none;stroke-width:1px;stroke-linecap:butt;stroke-linejoin:miter;stroke-opacity:1" d="M 12,-20 L 3,-5 L 14,-5 L 23,-20 L 12,-20 z " id="path3849"/>
            <path id="path3851" d="M 34,-20 L 25,-5 L 36,-5 L 45,-20 L 34,-20 z " style="fill:#000000;fill-rule:evenodd;stroke:none;stroke-width:1px;stroke-linecap:butt;stroke-linejoin:miter;stroke-opacity:1"/>
            <path style="fill:#000000;fill-rule:evenodd;stroke:none;stroke-width:1px;stroke-linecap:butt;stroke-linejoin:miter;stroke-opacity:1" d="M 56,-20 L 47,-5 L 58,-5 L 67,-20 L 56,-20 z " id="path3853"/>
          </g>
        </g>
      </g>
    </g>
  </g>
<script xmlns=""/></svg>
